Unicodia/Resources/Scripts/0750.svg

<?xml version="1.0" encoding="UTF-8" standalone="no"?>
<!-- Created with Inkscape (http://www.inkscape.org/) -->

<svg
   width="16"
   height="16"
   viewBox="0 0 16 16"
   version="1.1"
   id="svg5"
   inkscape:version="1.2.1 (9c6d41e410, 2022-07-14)"
   sodipodi:docname="0750.svg"
   inkscape:export-filename="..\0000.png"
   inkscape:export-xdpi="96"
   inkscape:export-ydpi="96"
   xmlns:inkscape="http://www.inkscape.org/namespaces/inkscape"
   xmlns:sodipodi="http://sodipodi.sourceforge.net/DTD/sodipodi-0.dtd"
   xmlns="http://www.w3.org/2000/svg"
   xmlns:svg="http://www.w3.org/2000/svg">
  <sodipodi:namedview
     id="namedview7"
     pagecolor="#ffffff"
     bordercolor="#666666"
     borderopacity="1.0"
     inkscape:pageshadow="2"
     inkscape:pageopacity="0"
     inkscape:pagecheckerboard="0"
     inkscape:document-units="px"
     showgrid="true"
     width="16mm"
     units="px"
     inkscape:zoom="45.254834"
     inkscape:cx="5.203864"
     inkscape:cy="9.5017474"
     inkscape:window-width="1680"
     inkscape:window-height="998"
     inkscape:window-x="-8"
     inkscape:window-y="-8"
     inkscape:window-maximized="1"
     inkscape:current-layer="layer1"
     showguides="true"
     inkscape:guide-bbox="true"
     inkscape:snap-bbox="true"
     inkscape:bbox-paths="true"
     inkscape:bbox-nodes="true"
     inkscape:snap-global="true"
     inkscape:showpageshadow="2"
     inkscape:deskcolor="#ffffff">
    <inkscape:grid
       type="xygrid"
       id="grid828"
       originx="0"
       originy="0" />
  </sodipodi:namedview>
  <defs
     id="defs2" />
  <g
     inkscape:label="Layer 1"
     inkscape:groupmode="layer"
     id="layer1">
    <rect
       style="opacity:1;fill:#ffff83;stroke:none;stroke-width:4.4376;stroke-linejoin:bevel;stop-color:#000000;fill-opacity:1"
       id="rect691"
       width="16"
       height="16"
       x="0"
       y="0" />
    <path
       fill="#f57900"
       d="m 9.1953141,3.963798 c 0,0.073889 -0.1372224,0.3221557 -0.4116671,0.7448003 C 8.5092065,5.1312388 8.3318563,5.342559 8.2515966,5.342559 8.2064613,5.342559 7.9865783,5.1980475 7.5919477,4.9090245 7.1973159,4.619999 7,4.4515572 7,4.4036993 7,4.3218063 7.1413947,4.067384 7.4241842,3.6404328 7.7069692,3.2134776 7.872064,3 7.9194687,3 8.0002907,3 8.2331366,3.145702 8.6180067,3.4371059 9.0028778,3.7285052 9.1953136,3.9040693 9.1953141,3.963798 Z M 15.155759,3.6994264 c -0.196708,0.2599346 -0.36413,0.5971027 -0.502266,1.0115044 -0.138131,0.4143971 -0.239545,0.6996809 -0.304244,0.8558512 -0.0647,0.1561696 -0.128286,0.2409476 -0.190753,0.2543341 -1.65312,0.3049485 -3.049159,0.638349 -4.1881158,1.0002014 -1.1389621,0.3618543 -1.7084432,0.6285963 -1.7084432,0.800226 0,0.044629 0.103742,0.121601 0.3112259,0.230917 0.2074839,0.1093162 0.46405,0.242061 0.7696985,0.3982344 0.8589646,0.4388865 1.4524206,0.8987007 1.7803656,1.3794424 0.327945,0.4807397 0.491918,0.9668747 0.491919,1.4584037 0,0.603301 -0.304533,1.151013 -0.913599,1.643136 C 9.6550743,13.577226 7.7553694,14 5.0024324,14 3.1189376,14 1.9130766,13.609573 1.3848494,12.82872 1.1282831,12.449449 1,12.012967 1,11.519275 1,11.02558 1.1650948,10.253969 1.4952843,9.2044436 c 0.062467,-0.1985593 0.098163,-0.297839 0.1070874,-0.297839 0.1115513,0 0.1952141,0.03012 0.2509886,0.09036 0.055774,0.06024 0.083661,0.1037464 0.083661,0.1305191 0,0.026774 -0.027887,0.1865705 -0.083661,0.4793895 -0.055774,0.2928203 -0.083661,0.5056028 -0.083661,0.6383488 0,0.392657 0.1249365,0.720615 0.3748095,0.983873 0.5039808,0.53098 1.6707991,0.79647 3.500455,0.79647 3.2340721,0 4.9207152,-0.116012 5.0599302,-0.348035 0.02678,-0.04463 0.04017,-0.09929 0.04017,-0.163975 0,-0.06472 -0.07585,-0.175155 -0.227563,-0.331305 C 10.082943,10.734917 9.5504284,10.356917 8.9199568,10.048248 8.2894823,9.7395803 7.9006017,9.5446484 7.7533149,9.4634522 7.6060333,9.3822547 7.4911187,9.2680347 7.4085712,9.1207924 7.3260237,8.9735416 7.28475,8.7337086 7.28475,8.4012935 c 0,-0.6564004 0.084778,-1.0546357 0.254334,-1.194706 0.8329165,-0.6706599 2.2116808,-1.4727084 4.136293,-2.4061457 1.088613,-0.5279775 2.095914,-0.9384833 3.021903,-1.2315174 0.17625,-0.055774 0.274414,-0.083661 0.294493,-0.083661 0.02008,0 0.05243,0.030119 0.09706,0.090356 0.04461,0.060237 0.06692,0.1015105 0.06692,0.1238214 z"
       id="path132"
       sodipodi:nodetypes="ssssscscsccscssscsssssssssssssscscsccscsssccc" />
  </g>
</svg>

<svg height="16" viewBox="0 0 16 16" width="16" xmlns="http://www.w3.org/2000/svg"><path d="m0 0h16v16h-16z" fill="#ffff83"/><path d="m9.2 3.96c0 .07-.14.32-.41.74-.28.43-.46.64-.54.64-.04 0-.26-.14-.66-.43-.39-.29-.59-.46-.59-.51 0-.08.14-.33.42-.76.29-.43.45-.64.5-.64.08 0 .31.15.7.44.38.29.58.46.58.52zm5.96-.26c-.2.26-.36.6-.5 1.01s-.24.7-.3.86-.13.24-.19.25c-1.65.3-3.05.64-4.19 1s-1.71.63-1.71.8c0 .04.1.12.31.23s.46.24.77.4c.86.44 1.45.9 1.78 1.38s.49.97.49 1.46c0 .6-.3 1.15-.91 1.64-1.05.85-2.95 1.27-5.71 1.27-1.88 0-3.09-.39-3.62-1.17-.25-.38-.38-.82-.38-1.31s.17-1.27.5-2.32c.06-.2.1-.3.11-.3.11 0 .2.03.25.09.06.06.08.1.08.13s-.03.19-.08.48c-.06.29-.08.51-.08.64 0 .39.12.72.37.98.5.53 1.67.8 3.5.8 3.23 0 4.92-.12 5.06-.35.03-.04.04-.1.04-.16s-.08-.18-.23-.33c-.44-.45-.97-.82-1.6-1.13s-1.02-.51-1.17-.59c-.14-.08-.26-.19-.34-.34s-.13-.39-.13-.72c0-.66.08-1.05.25-1.19.83-.67 2.21-1.47 4.14-2.41 1.09-.53 2.1-.94 3.02-1.23.18-.06.27-.08.29-.08s.05.03.1.09c.04.06.07.1.07.12z" fill="#f57900"/></svg>
